src/assets/icons/heart-outline.svg

<svg height="20" viewBox="0 0 20 20" width="20" xmlns="http://www.w3.org/2000/svg"><path d="m248.428712 839.053345-7.160381 7.832003c-.068435.075246-.16569.114652-.266529.114652-.100861 0-.198095-.039406-.26653-.114652l-7.16038-7.832003c-2.099856-2.293003-2.099856-6.022691 0-8.315694 1.022898-1.121419 2.387995-1.737651 3.843114-1.737651 1.332671 0 2.593301.515925 3.583796 1.465354.990495-.949429 2.24752-1.465354 3.580191-1.465354 1.455119 0 2.823799.616232 3.850325 1.737651 2.092645 2.293003 2.089039 6.022691-.003606 8.315694z" fill="none" stroke="#f00" stroke-width="2" transform="translate(-231 -828)"/></svg>

<?xml version="1.0" encoding="UTF-8"?>
<svg width="20px" height="20px" viewBox="0 0 20 20" version="1.1" xmlns="http://www.w3.org/2000/svg" xmlns:xlink="http://www.w3.org/1999/xlink">
    <title>Path Copy 2@1,5x</title>
    <g id="Page-1" stroke="none" stroke-width="1" fill="none" fill-rule="evenodd">
        <g id="Guide" transform="translate(-231.000000, -828.000000)" fill-rule="nonzero" stroke="#FF0000" stroke-width="2">
            <path d="M248.428712,839.053345 L241.268331,846.885348 C241.199896,846.960594 241.102641,847 241.001802,847 C240.900941,847 240.803707,846.960594 240.735272,846.885348 L233.574892,839.053345 C231.475036,836.760342 231.475036,833.030654 233.574892,830.737651 C234.59779,829.616232 235.962887,829 237.418006,829 C238.750677,829 240.011307,829.515925 241.001802,830.465354 C241.992297,829.515925 243.249322,829 244.581993,829 C246.037112,829 247.405792,829.616232 248.432318,830.737651 C250.524963,833.030654 250.521357,836.760342 248.428712,839.053345 Z" id="Path-Copy-2"></path>
        </g>
    </g>
</svg>
